assets/sonr-icons/star.svg

<svg xmlns="http://www.w3.org/2000/svg" width="24" height="24" fill="none" viewBox="0 0 24 24"><path fill="#000" d="M9.699 3.51798C10.562 1.48798 13.438 1.48798 14.301 3.51798L15.859 7.18498L19.707 7.50698C21.884 7.68898 22.796 10.381 21.179 11.85L18.236 14.521L19.199 18.957C19.686 21.198 17.149 22.857 15.291 21.514L12 19.134L8.709 21.514C6.851 22.858 4.315 21.199 4.801 18.957L5.764 14.521L2.821 11.85C1.203 10.381 2.115 7.68998 4.293 7.50798L8.141 7.18598L9.699 3.51898H9.701L9.699 3.51798ZM12.46 4.30098C12.288 3.89498 11.712 3.89498 11.54 4.30098L9.865 8.24498C9.648 8.75698 9.165 9.10698 8.61 9.15298L4.461 9.49998C4.025 9.53698 3.843 10.075 4.167 10.368L7.324 13.233C7.721 13.593 7.895 14.138 7.781 14.662L6.757 19.38C6.659 19.829 7.166 20.16 7.538 19.892L11.122 17.301C11.646 16.921 12.355 16.921 12.88 17.301L16.464 19.892C16.836 20.16 17.343 19.829 17.246 19.381L16.221 14.663C16.107 14.139 16.282 13.594 16.679 13.234L19.836 10.369C20.159 10.075 19.977 9.53698 19.542 9.50098L15.393 9.15398C14.839 9.10798 14.355 8.75798 14.138 8.24598L12.463 4.30198L12.46 4.30098Z"/></svg>

<svg xmlns="http://www.w3.org/2000/svg" width="24" height="24" fill="none"><path fill="currentColor" d="M9.699 3.518c.863-2.03 3.739-2.03 4.602 0l1.558 3.667 3.848.322c2.177.182 3.089 2.874 1.472 4.343l-2.943 2.671.963 4.436c.487 2.241-2.05 3.9-3.908 2.557L12 19.134l-3.291 2.38c-1.858 1.344-4.394-.315-3.908-2.557l.963-4.436-2.943-2.671c-1.618-1.469-.706-4.16 1.472-4.342l3.848-.322zh.002zm2.761.783a.5.5 0 0 0-.92 0L9.865 8.245c-.217.512-.7.862-1.255.908L4.461 9.5a.5.5 0 0 0-.294.868l3.157 2.865c.397.36.571.905.457 1.429L6.757 19.38a.5.5 0 0 0 .781.512l3.584-2.591a1.5 1.5 0 0 1 1.758 0l3.584 2.591a.5.5 0 0 0 .782-.511l-1.025-4.718a1.5 1.5 0 0 1 .458-1.429l3.157-2.865a.5.5 0 0 0-.294-.868l-4.149-.347a1.5 1.5 0 0 1-1.255-.908l-1.675-3.944z"/></svg>
